X: 1
T: Jim Hodder's
M: 4/4
L: 1/8
R: reel
K: Edor
E2B,E G2EG|B2GB d2Bc|dedB AFDE|F2ED EDB,D|
E2B,E G2EG|B2GB d2Bc|dedB AFDE|1F2ED EDB,D:|2F2ED EDcd||
e3f gfeg|fB~B2 e3f|gfe2 b4|e3f gfeg|fBBc dedB|AFDF E2Bd|
e3f gfeg|fB~B2 e3f|gfe2 b4|e3f gfeg|fBBc dedB|AFDF EDB,D|
